static/img/menus/ico-faceshot-max.svg

<svg width="20" height="20" viewBox="0 0 20 20" fill="none" xmlns="http://www.w3.org/2000/svg">
<path d="M17.5 12V4.5C17.5 3.39543 16.6046 2.5 15.5 2.5H4.5C3.39543 2.5 2.5 3.39543 2.5 4.5V15.5C2.5 16.6046 3.39543 17.5 4.5 17.5H12.25" stroke="#757575"/>
<path d="M12 10.5H17.5V16C17.5 16.8284 16.8284 17.5 16 17.5H10.5V12C10.5 11.1716 11.1716 10.5 12 10.5Z" stroke="#757575"/>
<path d="M5 5L5 9L6.5 7.5L9.5 10.5L10.5 9.5L7.5 6.5L9 5L5 5Z" fill="#757575"/>
</svg>

<svg xmlns="http://www.w3.org/2000/svg" width="20" height="20" fill="none" viewBox="0 0 20 20"><path stroke="#757575" d="M17.5 12V4.5a2 2 0 0 0-2-2h-11a2 2 0 0 0-2 2v11a2 2 0 0 0 2 2h7.75"/><path stroke="#757575" d="M12 10.5h5.5V16a1.5 1.5 0 0 1-1.5 1.5h-5.5V12a1.5 1.5 0 0 1 1.5-1.5Z"/><path fill="#757575" d="M5 5v4l1.5-1.5 3 3 1-1-3-3L9 5z"/></svg>
